X: 40152
T: Tim Fitzpatrick's
R: reel
M: 4/4
K: Dmajor
|:dD (3DDD EDB,D|dD (3DDD gfef|g2 fg edef|cA (3Bcd AFFA|
dD (3DDD EDB,D|d2ef gfeg|fdec dAFD|(3EFE DB, A,B, D2:|
|:d2ef gfeg|fdad bdad|g2fg edef|dBAF AddA|
d2ef gfeg|fdad bdad|g2fg edef|dBAF Adde:|

